img/wallet.svg

<svg width="24" height="24" viewBox="0 0 24 24" fill="none" xmlns="http://www.w3.org/2000/svg">
<rect x="2" y="4.75" width="20" height="14.5" rx="3" stroke="#777478" stroke-width="2"/>
<mask id="path-2-inside-1_53_668" fill="white">
<path d="M12.9167 12C12.9167 9.975 14.5584 8.33337 16.5834 8.33337H21.0001C22.1047 8.33337 23.0001 9.2288 23.0001 10.3334V13.6667C23.0001 14.7713 22.1047 15.6667 21.0001 15.6667H16.5834C14.5584 15.6667 12.9167 14.0251 12.9167 12V12Z"/>
</mask>
<path d="M16.5834 10.3334H21.0001V6.33337H16.5834V10.3334ZM21.0001 10.3334V13.6667H25.0001V10.3334H21.0001ZM21.0001 13.6667H16.5834V17.6667H21.0001V13.6667ZM16.5834 13.6667C15.6629 13.6667 14.9167 12.9205 14.9167 12H10.9167C10.9167 15.1297 13.4538 17.6667 16.5834 17.6667V13.6667ZM21.0001 13.6667L21.0001 13.6667V17.6667C23.2092 17.6667 25.0001 15.8758 25.0001 13.6667H21.0001ZM21.0001 10.3334H21.0001H25.0001C25.0001 8.12424 23.2092 6.33337 21.0001 6.33337V10.3334ZM16.5834 6.33337C13.4538 6.33337 10.9167 8.87043 10.9167 12H14.9167C14.9167 11.0796 15.6629 10.3334 16.5834 10.3334V6.33337Z" fill="#777478" mask="url(#path-2-inside-1_53_668)"/>
<circle cx="16.9167" cy="11.9167" r="0.916667" fill="#777478"/>
</svg>

<svg width="24" height="24" fill="none" xmlns="http://www.w3.org/2000/svg"><rect x="2" y="4.75" width="20" height="14.5" rx="3" stroke="#777478" stroke-width="2"/><mask id="a" fill="#fff"><path d="M12.917 12a3.667 3.667 0 013.666-3.667H21a2 2 0 012 2v3.334a2 2 0 01-2 2h-4.417A3.667 3.667 0 0112.917 12z"/></mask><path d="M16.583 10.333H21v-4h-4.417v4zm4.417 0v3.334h4v-3.334h-4zm0 3.334h-4.417v4H21v-4zm-4.417 0c-.92 0-1.666-.746-1.666-1.667h-4a5.667 5.667 0 005.666 5.667v-4zm4.417 0v4a4 4 0 004-4h-4zm0-3.334h4a4 4 0 00-4-4v4zm-4.417-4A5.667 5.667 0 0010.917 12h4c0-.92.746-1.667 1.666-1.667v-4z" fill="#777478" mask="url(#a)"/><circle cx="16.917" cy="11.917" r=".917" fill="#777478"/></svg>
